!!!COM:	Compere, Loyset
!!!CDT:	~1445///-1518/08/16
!!!OTL:	Pensant au bien que m'a dame m'a fait
!!!AGN:	Song; Chanson
!!!SCT:	Com3029
!!!SCA:	Com3029
!!!voices:	3
**kern	**kern	**kern
*staff3	*staff2	*staff1
*Ivox	*Ivox	*Ivox
*I"Bassus	*I"Tenor	*I"Superius
*I'B	*I'T	*I'S
*>[A,B]	*>[A,B]	*>[A,B]
*>A	*>A	*>A
*clefF4	*clefGv2	*clefG2
*k[b-]	*k[b-]	*k[b-]
*M2/1	*M2/1	*M2/1
*met(C|)	*met(C|)	*met(C|)
=1-	=1-	=1-
1r	1r	0r
1G	1G	.
=2	=2	=2
2G	1B-	0r
2D	.	.
2.E-	1c	.
8DL	.	.
8CJ	.	.
=3	=3	=3
0BB-	1d	1r
.	2r	1d
.	2d	.
=4	=4	=4
1D	1d	1f
1C	1e	1g
=5	=5	=5
2r	2.f	1a
2.F	.	.
.	4e	.
.	4d	2r
4E	4c	.
4D	[2d	2a
4C	.	.
=6	=6	=6
2D	2d]	1a
2F	2c	.
1G	2B-	1b-
.	4A	.
.	4G	.
=7	=7	=7
2A	4F	2.cc
.	4G	.
2.F	4A	.
.	4B-	4b-
.	2c	4a
4E	.	4g
2D	2d	[2b-
=8	=8	=8
2E-	2B-	4b-]
.	.	8aL
.	.	8gJ
2C	2c	1g
1D	1A	.
.	.	2f#i
=9	=9	=9
2r	1G	0g
2.G	.	.
.	1r	.
4F	.	.
[2E	.	.
=10	=10	=10
4E]	1c	1r
4D	.	.
2C	.	.
1F	1c	1a
=11	=11	=11
2r	2c	1a
2.F	2.d	.
.	.	2a
4E	4c	.
4D	4B-	[2b-
4C	4A	.
=12	=12	=12
2.BB-	1B-	2b-]
.	.	4a
4C	.	4g
[1D	1A	[1f
=13	=13	=13
1D]	2r	1f]
.	2d	.
1D	1d	2r
.	.	2f
=14	=14	=14
1C	1e	1g
1G	1d	1b-
=15	=15	=15
2D	2d	1a
1F	2.c	.
.	.	2g
.	4A	.
2E-	2B-	[2g
=16	=16	=16
4C	2A	4g]
2D	.	4f
.	1d	4e
8CL	.	4d
8BB-J	.	.
1AA	.	1e
.	2c	.
=17	=17	=17
0BB-	2B-	0d
.	4A	.
.	4G	.
.	2F	.
.	2G	.
=18	=18	=18
2.BB-	1B-	2r
.	.	2g
4C	.	.
1D	1A	2g
.	.	2f#i
=19	=19	=19
2.GG	1G	0g
4AA	.	.
2BB-	1r	.
[2C	.	.
=20	=20	=20
4C]	1c	1r
4D	.	.
4E	.	.
8DL	.	.
8EJ	.	.
1F	2c	1a
.	2c	.
=21	=21	=21
2r	2c	2a
2.F	2c	2a
.	1d	2a
4E	.	.
4D	.	[2b-
4C	.	.
=22	=22	=22
2BB-	4d	4b-]
.	4c	4a
2F	4B-	1a
.	4A	.
1G	1B-	.
.	.	2g
=23	=23	=23
2D	0A	1a
2.F	.	.
.	.	2r
4E	.	.
2D	.	2a
=24	=24	=24
2C	2r	4a
.	.	4g
2D	2d	4f
.	.	4e
2.F	1d	2d
.	.	2f
4G	.	.
=25	=25	=25
1A	1c	1e
2r	[1d	1d
2D	.	.
=26	=26	=26
2.D	1d]	2r
.	.	2d
4E	.	.
4F	2r	4d
4G	.	4e
4A	2D	4f
4B-	.	4g
=27	=27	=27
2.A	4D	4a
.	4E	4g
.	4F	4a
4G	4G	4b-
4F	4A	4cc
8EL	4B-	4b-
8DJ	.	.
2C	4c	4a
.	8B-L	4g
.	8cJ	.
=28	=28	=28
2BB-	4d	2b-
.	4B-	.
2F	2c	2.a
2E	2G	.
.	.	4g
2G	2B-	[2g
=29	=29	=29
1D	1A	2g]
.	.	2f#i
1GGl	1Gl	1gl
!!LO:LB:i:g=z
=30||	=30||	=30||
*>B	*>B	*>B
*clefF4	*clefGv2	*clefG2
*k[b-]	*k[b-]	*k[b-]
*M2/1	*M2/1	*M2/1
*met(C|)	*met(C|)	*met(C|)
!!section: J'ay confort doulx
!!!OMD: J'ay confort doulx
1r	1r	1r
1G	1B-	1d
=31	=31	=31
2.G	1.B-	2.d
8FL	.	4e
8EJ	.	.
2D	.	2f
4C	4A	[2g
4BB-	4G	.
=32	=32	=32
1C	1A	2g]
.	.	4f#i
.	.	4e
1D	1A	1f#i
=33	=33	=33
0GG	0G	1g
.	.	2r
.	.	2g
=34	=34	=34
1E-	2r	1g
.	2B-	.
2.E-i	1B-	1g
4D	.	.
=35	=35	=35
2BB-	2B-	2.f
1D	2.A	.
.	.	4e
.	.	2f
.	4F	.
2C	2G	[2e
=36	=36	=36
1D	2D	4e]
.	.	4d
.	2F	1d
1AA	1E	.
.	.	2c#i
=37	=37	=37
2r	0D	1d
2F	.	.
4F	.	2r
4G	.	.
4A	.	2f
4B-	.	.
=38	=38	=38
2.A	2r	4f
.	.	4g
.	2F	4a
4G	.	4b-
2A	4F	2.cc
.	4G	.
[2F	4A	.
.	4B-	4b-
=39	=39	=39
4F]	2c	4a
4E	.	4g
4D	1d	1f
4C	.	.
2D	.	.
2G	4c	[2b-
.	4B-	.
=40	=40	=40
1F	1c	2b-]
.	.	2a
2r	[1B-	1b-
2G	.	.
=41	=41	=41
1G	1B-]	2r
.	.	2b-
1G	2r	1b-
.	2d	.
=42	=42	=42
1G	2d	1b-
.	2e	.
2F	1f	2.a
4E	.	.
4D	.	4b-
=43	=43	=43
2C	2e	2cc
2GG	1d	1b-
2BB-	.	.
2C	4c	4a
.	4B-	4g
=44	=44	=44
1D	2.A	2.f
.	4B-	4g
2C	4c	4a
.	4d	4b-
2F	2c	[2a
=45	=45	=45
2E	2G	4a]
.	.	4g
2G	2B-	1g
1D	1A	.
.	.	2f#i
=46	=46	=46
0GGl	0Gl	0gl
==	==	==
*-	*-	*-
!!!RDF**kern: l=long note in original notation
!!!RDF**kern: i=editorial accidental
!!!ENC:	Megan K. Eagen 2013/12/18
!!!END:	2013/12/18/
!!!EED:	Jesse Rodin
!!!EEV:	2014/02/23/
!!!ONB:	Translated from MusicXML and edited on 2014/02/23/ by Craig Sapp
!!muse2ps: C^@{COM}^i2I150v95,95,150Q16
